admin/src/theme/img/safetyequipment/big/X.svg

<svg width="32" height="32" viewBox="0 0 32 32" xmlns="http://www.w3.org/2000/svg">
  <g fill="none" fill-rule="evenodd">
    <path d="M0 0h32v32H0z"/>
    <path d="M11.24 30.8533333h9.52V32h-9.52v-1.1466667ZM19.6133333 8.32 13.44 14.48l-1.0666667-1.0666667 6.1733334-6.15999997L19.6133333 8.32ZM13.44 7.25333333l6.1733333 6.15999997L18.5466667 14.48l-6.1733334-6.16L13.44 7.25333333Zm5.7866667 23.59999997H12.76L16 18.7866667l3.24 12.0666666h-.0133333Zm-3.84-18.3066666H16.6l-.6133333-.6133334-.6133334.6133334h.0133334Zm.04 0h1.1466666v6.24h-1.1466666v-6.24Zm0 8.3733333v-2.1333333H16L15.4266667 20.92Zm1.1466666-.04L16 18.7866667h.5733333V20.88Z" fill="#EC0E0E" fill-rule="nonzero"/>
  </g>
</svg>

<?xml version="1.0" encoding="UTF-8"?>
<svg width="32px" height="32px" viewBox="0 0 32 32" version="1.1" xmlns="http://www.w3.org/2000/svg" xmlns:xlink="http://www.w3.org/1999/xlink">
    <title>5188D609-FFEC-46AD-BE66-BBAE4D9A8829</title>
    <g id="Squat-laskuri" stroke="none" stroke-width="1" fill="none" fill-rule="evenodd">
        <g id="colors_and_typography" transform="translate(-1246.000000, -1050.000000)">
            <g id="turvalaite_ikonit" transform="translate(718.000000, 906.000000)">
                <g id="Asset-50" transform="translate(528.000000, 144.000000)">
                    <rect id="Rectangle" x="0" y="0" width="32" height="32"></rect>
                    <path d="M11.24,30.8533333 L20.76,30.8533333 L20.76,32 L11.24,32 L11.24,30.8533333 Z M19.6133333,8.32 L13.44,14.48 L12.3733333,13.4133333 L18.5466667,7.25333333 L19.6133333,8.32 L19.6133333,8.32 Z M13.44,7.25333333 L19.6133333,13.4133333 L18.5466667,14.48 L12.3733333,8.32 L13.44,7.25333333 L13.44,7.25333333 Z M19.2266667,30.8533333 L12.76,30.8533333 L16,18.7866667 L19.24,30.8533333 L19.2266667,30.8533333 Z M15.3866667,12.5466667 L16.6,12.5466667 L15.9866667,11.9333333 L15.3733333,12.5466667 L15.3866667,12.5466667 Z M15.4266667,12.5466667 L16.5733333,12.5466667 L16.5733333,18.7866667 L15.4266667,18.7866667 L15.4266667,12.5466667 Z M15.4266667,20.92 L15.4266667,18.7866667 L16,18.7866667 L15.4266667,20.92 Z M16.5733333,20.88 L16,18.7866667 L16.5733333,18.7866667 L16.5733333,20.88 Z" id="Shape" fill="#EC0E0E" fill-rule="nonzero"></path>
                </g>
            </g>
        </g>
    </g>
</svg>
